!!!COM: des Prez, Josquin
!!!CDT: ~1450-1521/08/27
!!!OTL@@LAT: Benedicta es, celorum regina
!!!OTL2@@LAT: Per illud ave prolatum
!!!OTL3@@LAT: Nunc mater exora natum
!!!AGN: Motet
!!!SCT: NJE 23.13
!!!SCA: New Josquin Edition 23.13
!!!voices: 6
**kern	**text	**kern	**text	**kern	**text	**kern	**text	**kern	**text	**kern	**text
*staff6	*	*staff5	*	*staff4	*	*staff3	*	*staff2	*	*staff1	*
*Ivox	*	*Ivox	*	*Ivox	*	*Ivox	*	*Ivox	*	*Ivox	*
*I"Bassus1	*	*I"Bassus2	*	*I"Tenor1	*	*I"Tenor2	*	*I"Altus	*	*I"Superius	*
*I'B1	*	*I'B2	*	*I'T1	*	*I'T2	*	*I'A	*	*I'S	*
*>A	*	*>A	*	*>A	*	*>A	*	*>A	*	*>A	*
*clefF4	*	*clefF4	*	*clefGv2	*	*clefGv2	*	*clefGv2	*	*clefG2	*
*k[]	*	*k[]	*	*k[]	*	*k[]	*	*k[]	*	*k[]	*
*M2/1	*	*M2/1	*	*M2/1	*	*M2/1	*	*M2/1	*	*M2/1	*
*met(C|)	*	*met(C|)	*	*met(C|)	*	*met(C|)	*	*met(C|)	*	*met(C|)	*
=1-	=1-	=1-	=1-	=1-	=1-	=1-	=1-	=1-	=1-	=1-	=1-
!	!	!	!	!	!	!	!	!	!	!LO:TX:Z=6:t=Quasi canon at the lower 8ve (S-->T1)	!
0r	.	0r	.	0r	.	0r	.	1G	Be-	0g	Be-
.	.	.	.	.	.	.	.	2.G/	-ne-	.	.
.	.	.	.	.	.	.	.	4A/	.	.	.
=2	=2	=2	=2	=2	=2	=2	=2	=2	=2	=2	=2
0r	.	0r	.	0r	.	0r	.	2B\	-dic-	0g	-ne-
.	.	.	.	.	.	.	.	2c\	.	.	.
.	.	.	.	.	.	.	.	2G/	.	.	.
.	.	.	.	.	.	.	.	[2g\	.	.	.
=3	=3	=3	=3	=3	=3	=3	=3	=3	=3	=3	=3
0r	.	0r	.	0r	.	0r	.	2g\]	.	0a	.
.	.	.	.	.	.	.	.	4f\	.	.	.
.	.	.	.	.	.	.	.	4e\	.	.	.
.	.	.	.	.	.	.	.	2f\	.	.	.
.	.	.	.	.	.	.	.	[2d\	.	.	.
=4	=4	=4	=4	=4	=4	=4	=4	=4	=4	=4	=4
0r	.	0r	.	0r	.	0r	.	4d\]	.	0a	-dic-
.	.	.	.	.	.	.	.	4c\	.	.	.
.	.	.	.	.	.	.	.	4d\	.	.	.
.	.	.	.	.	.	.	.	4e\	.	.	.
.	.	.	.	.	.	.	.	4f\	.	.	.
.	.	.	.	.	.	.	.	4g\	.	.	.
.	.	.	.	.	.	.	.	4a\	.	.	.
.	.	.	.	.	.	.	.	4f\	.	.	.
=5	=5	=5	=5	=5	=5	=5	=5	=5	=5	=5	=5
1GG	Be-	0r	.	0G	Be-	0r	.	0g	-ta,	0b	.
2.GG/	-ne-	.	.	.	.	.	.	.	.	.	.
4AA/	.	.	.	.	.	.	.	.	.	.	.
=6	=6	=6	=6	=6	=6	=6	=6	=6	=6	=6	=6
2BB/	-dic-	0r	.	0G	-ne-	0r	.	0r	.	0g	-ta
2C/	.	.	.	.	.	.	.	.	.	.	.
2GG/	.	.	.	.	.	.	.	.	.	.	.
[2G\	.	.	.	.	.	.	.	.	.	.	.
=7	=7	=7	=7	=7	=7	=7	=7	=7	=7	=7	=7
2G\]	.	0r	.	0A	.	0r	.	0r	.	0r	.
4F\	.	.	.	.	.	.	.	.	.	.	.
4E\	.	.	.	.	.	.	.	.	.	.	.
2F\	.	.	.	.	.	.	.	.	.	.	.
[2D\	.	.	.	.	.	.	.	.	.	.	.
=8	=8	=8	=8	=8	=8	=8	=8	=8	=8	=8	=8
4D\]	.	0r	.	0A	-dic-	0r	.	0r	.	0r	.
4C/	.	.	.	.	.	.	.	.	.	.	.
4D\	.	.	.	.	.	.	.	.	.	.	.
4E\	.	.	.	.	.	.	.	.	.	.	.
4F\	.	.	.	.	.	.	.	.	.	.	.
4G\	.	.	.	.	.	.	.	.	.	.	.
4A\	.	.	.	.	.	.	.	.	.	.	.
4F\	.	.	.	.	.	.	.	.	.	.	.
=9	=9	=9	=9	=9	=9	=9	=9	=9	=9	=9	=9
0G	-ta	1GG	Be-	0B	.	2r	.	1r	.	0r	.
.	.	.	.	.	.	2G/	Be-	.	.	.	.
.	.	2.GG/	-ne-	.	.	4G/	-ne-	1G	Be-	.	.
.	.	.	.	.	.	4A/	.	.	.	.	.
.	.	.	.	.	.	4B\	.	.	.	.	.
.	.	4AA/	.	.	.	4c\	.	.	.	.	.
=10	=10	=10	=10	=10	=10	=10	=10	=10	=10	=10	=10
0r	.	2BB/	-dic-	0G	-ta	2d\	.	2.G/	-ne-	0r	.
.	.	2C/	.	.	.	2e\	.	.	.	.	.
.	.	.	.	.	.	.	.	4A/	.	.	.
.	.	2GG/	.	.	.	1d	-dic-	2B\	-dic-	.	.
.	.	[2G\	.	.	.	.	.	2G/	-ta	.	.
=11	=11	=11	=11	=11	=11	=11	=11	=11	=11	=11	=11
1r	.	2G\]	.	0r	.	0D	-ta,	1A	es,	0a	es,
.	.	4F\	.	.	.	.	.	.	.	.	.
.	.	4E\	.	.	.	.	.	.	.	.	.
1D	es,	4F\	.	.	.	.	.	2D/	ce-	.	.
.	.	4G\	.	.	.	.	.	.	.	.	.
.	.	4A\	.	.	.	.	.	2d\	-lo-	.	.
.	.	4F\	.	.	.	.	.	.	.	.	.
=12	=12	=12	=12	=12	=12	=12	=12	=12	=12	=12	=12
1E	ce-	2G\	.	0r	.	0r	.	2B\	-rum	1g	ce-
.	.	4C/	.	.	.	.	.	2.c\	re-	.	.
.	.	4D\	.	.	.	.	.	.	.	.	.
2.C/	-lo-	4E\	.	.	.	.	.	.	.	[1cc	-lo-
.	.	4F\	.	.	.	.	.	4B\	.	.	.
.	.	[2G\	.	.	.	.	.	2G/	.	.	.
4BB/	.	.	.	.	.	.	.	.	.	.	.
=13	=13	=13	=13	=13	=13	=13	=13	=13	=13	=13	=13
1AA	.	4G\]	.	0r	.	1r	.	4A/	-gi-	1cc]	.
.	.	4F#i\	.	.	.	.	.	4B\	.	.	.
.	.	4F#i\	.	.	.	.	.	4c\	.	.	.
.	.	4E\	.	.	.	.	.	4A/	.	.	.
1GG	-rum	1G	-ta	.	.	2r	.	4B\	.	1b	-rum
.	.	.	.	.	.	.	.	4c\	.	.	.
.	.	.	.	.	.	2G/	be-	4d\	.	.	.
.	.	.	.	.	.	.	.	4e\	.	.	.
=14	=14	=14	=14	=14	=14	=14	=14	=14	=14	=14	=14
1D	re-	0r	.	0r	.	2A/	.	2f\	.	1a	re-
.	.	.	.	.	.	2F/	-ne-	2.d\	.	.	.
1E	-gi-	.	.	.	.	2G/	-dic-	.	.	[1g	-gi-
.	.	.	.	.	.	.	.	4c\	.	.	.
.	.	.	.	.	.	2C/	-ta	4c\	.	.	.
.	.	.	.	.	.	.	.	4B\	.	.	.
=15	=15	=15	=15	=15	=15	=15	=15	=15	=15	=15	=15
*	*	*	*	*	*	*M2/1	*	*	*	*	*
*	*	*	*	*	*	*met(3)	*	*	*	*	*
0D	-na,	1r	.	0A	es,	3.F/	es,	1d	-na,	2g/]	.
.	.	.	.	.	.	6G/	.	.	.	4f#i/	.
.	.	.	.	.	.	3A/	ce-	.	.	.	.
.	.	.	.	.	.	.	.	.	.	4e/	.
*	*	*	*	*	*	*M2/1	*	*	*	*	*
*	*	*	*	*	*	*met(C|)	*	*	*	*	*
.	.	1D	es,	.	.	2D/	-lo-	2r	.	1f#i	.
.	.	.	.	.	.	2d\	-rum	2D/	ce-	.	.
=16	=16	=16	=16	=16	=16	=16	=16	=16	=16	=16	=16
0r	.	1E	ce-	1G	ce-	2B\	re-	2G/	-lo-	0g	-na,
.	.	.	.	.	.	2.c\	-gi-	4C/	.	.	.
.	.	.	.	.	.	.	.	4D/	.	.	.
.	.	2.C/	-lo-	[1c	-lo-	.	.	4E/	.	.	.
.	.	.	.	.	.	4B\	.	4F/	.	.	.
.	.	.	.	.	.	2G/	.	[2G/	.	.	.
.	.	4BB/	.	.	.	.	.	.	.	.	.
=17	=17	=17	=17	=17	=17	=17	=17	=17	=17	=17	=17
0r	.	1AA	.	1c]	.	4A/	.	2G/]	.	0r	.
.	.	.	.	.	.	4B\	.	.	.	.	.
.	.	.	.	.	.	4c\	.	2F/	.	.	.
.	.	.	.	.	.	4A/	.	.	.	.	.
.	.	1GG	-rum	1B	-rum	4B\	.	1G	-rum	.	.
.	.	.	.	.	.	4c\	.	.	.	.	.
.	.	.	.	.	.	4d\	.	.	.	.	.
.	.	.	.	.	.	4e\	.	.	.	.	.
=18	=18	=18	=18	=18	=18	=18	=18	=18	=18	=18	=18
0r	.	1D	re-	1A	re-	2f\	.	1F	re-	0r	.
.	.	.	.	.	.	2.d\	.	.	.	.	.
.	.	1E	.	[1G	-gi-	.	.	1G	.	.	.
.	.	.	.	.	.	4c\	.	.	.	.	.
.	.	.	.	.	.	4c\	.	.	.	.	.
.	.	.	.	.	.	4B\	.	.	.	.	.
=19	=19	=19	=19	=19	=19	=19	=19	=19	=19	=19	=19
1r	.	0D	-gi-	2G/]	.	0d	-na,	0A	-gi-	0a	Et
.	.	.	.	4F#i/	.	.	.	.	.	.	.
.	.	.	.	4E/	.	.	.	.	.	.	.
[1D	Et	.	.	1F#i	.	.	.	.	.	.	.
=20	=20	=20	=20	=20	=20	=20	=20	=20	=20	=20	=20
1D]	.	0GG	-na,	0G	-na,	2r	.	0G	-na,	1.b	mun-
.	.	.	.	.	.	2d\	Et	.	.	.	.
[1E	mun-	.	.	.	.	[1g	mun-	.	.	.	.
.	.	.	.	.	.	.	.	.	.	2g/	.
=21	=21	=21	=21	=21	=21	=21	=21	=21	=21	=21	=21
2E\]	.	0r	.	0r	.	2g\]	.	2r	.	1g	-di
2C/	.	.	.	.	.	2e\	.	2G/	Et	.	.
1C	-di	.	.	.	.	2e\	-di	2.c\	mun-	1g	to-
.	.	.	.	.	.	[2c\	to-	.	.	.	.
.	.	.	.	.	.	.	.	4A/	.	.	.
=22	=22	=22	=22	=22	=22	=22	=22	=22	=22	=22	=22
1D	to-	0r	.	0r	.	2c\]	.	2A/	-di	1f	-ti-
.	.	.	.	.	.	2B\	-ti-	2d\	to-	.	.
2C/	-ti-	.	.	.	.	2c\	-us	2e\	-ti-	2e/	-us
2BB/	-us	.	.	.	.	2d\	do-	2d\	-us	[2g/	do-
=23	=23	=23	=23	=23	=23	=23	=23	=23	=23	=23	=23
*	*	*	*	*	*	*	*	*M2/1	*	*	*
*	*	*	*	*	*	*	*	*met(3)	*	*	*
1C	do-	1r	.	0A	Et	1e	-mi-	3.c\	do-	2g/]	.
.	.	.	.	.	.	.	.	6B\	.	4f#i/	.
.	.	.	.	.	.	.	.	3c\	.	.	.
.	.	.	.	.	.	.	.	.	.	4e/	.
1D	-mi-	[1D	Et	.	.	1d	-na,	3.A/	-mi-	1f#i	-mi-
.	.	.	.	.	.	.	.	6G/	.	.	.
.	.	.	.	.	.	.	.	3A/	.	.	.
=24	=24	=24	=24	=24	=24	=24	=24	=24	=24	=24	=24
*	*	*	*	*	*	*	*	*M2/1	*	*	*
*	*	*	*	*	*	*	*	*met(C|)	*	*	*
0GG	-na,	1D]	.	1.B	mun-	2r	.	0G	-na,	0g	-na,
.	.	.	.	.	.	2d\	et	.	.	.	.
.	.	[1E	mun-	.	.	[1g	mun-	.	.	.	.
.	.	.	.	2G/	.	.	.	.	.	.	.
=25	=25	=25	=25	=25	=25	=25	=25	=25	=25	=25	=25
0r	.	2E\]	.	1G	-di	2g\]	.	2r	.	0r	.
.	.	2C/	.	.	.	2e\	.	2G/	et	.	.
.	.	1C	-di	1G	to-	2e\	-di	2.c\	mun-	.	.
.	.	.	.	.	.	[2c\	to-	.	.	.	.
.	.	.	.	.	.	.	.	4A/	.	.	.
=26	=26	=26	=26	=26	=26	=26	=26	=26	=26	=26	=26
0r	.	1D	to-	1F	-ti-	2c\]	.	2A/	-di	0r	.
.	.	.	.	.	.	2B\	-ti-	2d\	to-	.	.
.	.	2C/	-ti-	2E/	-us	2c\	-us	2e\	-ti-	.	.
.	.	2BB/	-us	[2G/	do-	2d\	do-	2d\	-us	.	.
=27	=27	=27	=27	=27	=27	=27	=27	=27	=27	=27	=27
*	*	*	*	*	*	*	*	*M2/1	*	*	*
*	*	*	*	*	*	*	*	*met(3)	*	*	*
0r	.	1C	do-	2G/]	.	1e	-mi-	3.c\	do-	1r	.
.	.	.	.	4F#i/	.	.	.	6B\	.	.	.
.	.	.	.	.	.	.	.	3c\	.	.	.
.	.	.	.	4E/	.	.	.	.	.	.	.
.	.	1D	-mi-	1F#i	-mi-	1d	-na,	3.A/	-mi-	1a	Et
.	.	.	.	.	.	.	.	6G/	.	.	.
.	.	.	.	.	.	.	.	3A/	.	.	.
=28	=28	=28	=28	=28	=28	=28	=28	=28	=28	=28	=28
*	*	*	*	*	*	*	*	*M2/1	*	*	*
*	*	*	*	*	*	*	*	*met(C|)	*	*	*
0r	.	0GG	-na,	0G	-na,	1r	.	0G	-na,	1.b	e-
.	.	.	.	.	.	[1g	Et	.	.	.	.
.	.	.	.	.	.	.	.	.	.	4a/	-gris
.	.	.	.	.	.	.	.	.	.	4g/	.
=29	=29	=29	=29	=29	=29	=29	=29	=29	=29	=29	=29
0r	.	0r	.	0r	.	2g\]	.	0r	.	2b\	me-
.	.	.	.	.	.	2f\	e-	.	.	2a/	-di-
.	.	.	.	.	.	2e\	-gris	.	.	2.cc\	-ci-
.	.	.	.	.	.	2d\	.	.	.	.	.
.	.	.	.	.	.	.	.	.	.	4b\	.
=30	=30	=30	=30	=30	=30	=30	=30	=30	=30	=30	=30
0r	.	0r	.	1r	.	2c\	me-	0r	.	4a/	.
.	.	.	.	.	.	.	.	.	.	4g/	.
.	.	.	.	.	.	2B\	-di-	.	.	2.g/	.
.	.	.	.	1A	Et	1A	-ci-	.	.	.	.
.	.	.	.	.	.	.	.	.	.	4f#i/	.
.	.	.	.	.	.	.	.	.	.	4f#i/	.
.	.	.	.	.	.	.	.	.	.	4e/	.
=31	=31	=31	=31	=31	=31	=31	=31	=31	=31	=31	=31
0r	.	1r	.	1.B	e-	0G	-na.	0r	.	0g	-na.
.	.	[1G	Et	.	.	.	.	.	.	.	.
.	.	.	.	4A/	-gris	.	.	.	.	.	.
.	.	.	.	4G/	.	.	.	.	.	.	.
=32	=32	=32	=32	=32	=32	=32	=32	=32	=32	=32	=32
0r	.	2G\]	.	2B\	me-	0r	.	0r	.	0r	.
.	.	2F\	e-	2A/	-di-	.	.	.	.	.	.
.	.	2E\	-gris	2.c\	-ci-	.	.	.	.	.	.
.	.	2D\	.	.	.	.	.	.	.	.	.
.	.	.	.	4B\	.	.	.	.	.	.	.
=33	=33	=33	=33	=33	=33	=33	=33	=33	=33	=33	=33
0r	.	2C/	me-	4A/	.	0r	.	1r	.	0r	.
.	.	.	.	4G/	.	.	.	.	.	.	.
.	.	2BB/	-di-	2.G/	.	.	.	.	.	.	.
.	.	1AA	-ci-	.	.	.	.	1A	Et	.	.
.	.	.	.	4F#i/	.	.	.	.	.	.	.
.	.	.	.	4F#i/	.	.	.	.	.	.	.
.	.	.	.	4E/	.	.	.	.	.	.	.
=34	=34	=34	=34	=34	=34	=34	=34	=34	=34	=34	=34
1r	.	0GG	-na.	0G	-na.	0r	.	1.B	e-	0r	.
[1G	Et	.	.	.	.	.	.	.	.	.	.
.	.	.	.	.	.	.	.	4A/	-gris	.	.
.	.	.	.	.	.	.	.	4G/	.	.	.
=35	=35	=35	=35	=35	=35	=35	=35	=35	=35	=35	=35
2G\]	.	0r	.	0r	.	0r	.	2B\	me-	0r	.
2F\	e-	.	.	.	.	.	.	2A/	-di-	.	.
2E\	-gris	.	.	.	.	.	.	2.c\	-ci-	.	.
2D\	.	.	.	.	.	.	.	.	.	.	.
.	.	.	.	.	.	.	.	4B\	.	.	.
=36	=36	=36	=36	=36	=36	=36	=36	=36	=36	=36	=36
2C/	me-	0r	.	0r	.	0r	.	4A/	.	0r	.
.	.	.	.	.	.	.	.	4G/	.	.	.
2BB/	-di-	.	.	.	.	.	.	2.G/	.	.	.
1AA	-ci-	.	.	.	.	.	.	.	.	.	.
.	.	.	.	.	.	.	.	4F#i/	.	.	.
.	.	.	.	.	.	.	.	4F#i/	.	.	.
.	.	.	.	.	.	.	.	4E/	.	.	.
=37	=37	=37	=37	=37	=37	=37	=37	=37	=37	=37	=37
[0GG	-na.	0r	.	0r	.	0r	.	1G	-na.	0r	.
.	.	.	.	.	.	.	.	[1d	Tu	.	.
=38	=38	=38	=38	=38	=38	=38	=38	=38	=38	=38	=38
0GG]	.	0G	Tu	0r	.	0B	Tu	1d]	.	0g	Tu
.	.	.	.	.	.	.	.	1d	pre-	.	.
=39	=39	=39	=39	=39	=39	=39	=39	=39	=39	=39	=39
1C	Tu	1E	pre-	0r	.	1c	.	1e	.	1g	pre-
1AA	pre-	1A	-cla-	.	.	1c	pre-	1e	-cla-	1a	.
=40	=40	=40	=40	=40	=40	=40	=40	=40	=40	=40	=40
1D	-cla-	1D	-ra	0r	.	2d\	.	1f	.	1a	-cla-
.	.	.	.	.	.	2.d\	-cla-	.	.	.	.
1GG	-ra,	2.G\	ma-	.	.	.	.	1d	-ra	[1b	.
.	.	.	.	.	.	4c\	.	.	.	.	.
.	.	.	.	.	.	4B\	.	.	.	.	.
.	.	4F\	.	.	.	4A/	.	.	.	.	.
=41	=41	=41	=41	=41	=41	=41	=41	=41	=41	=41	=41
1r	.	4E\	.	0G	Tu	1B	-ra	1.g	ma-	2b\]	.
.	.	4D\	.	.	.	.	.	.	.	.	.
.	.	2E\	.	.	.	.	.	.	.	2g/	.
[1C	tu	2C/	.	.	.	2r	.	.	.	1g	-ra
.	.	[2G\	.	.	.	[2e\	ma-	2e\	.	.	.
=42	=42	=42	=42	=42	=42	=42	=42	=42	=42	=42	=42
1C]	.	4G\]	.	1G	pre-	4e\]	.	0e	-ris	2r	.
.	.	4F\	.	.	.	4d\	.	.	.	.	.
.	.	4E\	.	.	.	4c\	.	.	.	2.cc\	ma-
.	.	4D\	.	.	.	4B\	.	.	.	.	.
1AA	pre-	1E	-ris	1A	.	1c	-ris	.	.	.	.
.	.	.	.	.	.	.	.	.	.	4b\	.
.	.	.	.	.	.	.	.	.	.	4a/	.
.	.	.	.	.	.	.	.	.	.	4g/	.
=43	=43	=43	=43	=43	=43	=43	=43	=43	=43	=43	=43
1D	-cla-	1.D	stel-	1A	-cla-	1.d	stel-	1f	stel-	1a	.
1GG	-ra	.	.	[1B	.	.	.	[1d	-la	1g	-ris
.	.	2GG/	.	.	.	2B\	.	.	.	.	.
=44	=44	=44	=44	=44	=44	=44	=44	=44	=44	=44	=44
1G	ma-	1GG	-la,	2B\]	.	1B	-la	2d\]	.	0r	.
.	.	.	.	2G/	.	.	.	2d\	vo-	.	.
2E\	.	1r	.	2G/	-ra	1c	.	2.e\	-ca-	.	.
[2A\	.	.	.	[2c\	ma-	.	.	.	.	.	.
.	.	.	.	.	.	.	.	4c\	.	.	.
=45	=45	=45	=45	=45	=45	=45	=45	=45	=45	=45	=45
4A\]	.	0r	.	4c\]	.	2r	.	1c	-ris,	1r	.
4G\	.	.	.	4B\	.	.	.	.	.	.	.
4F\	.	.	.	4A/	.	2c\	vo-	.	.	.	.
4E\	.	.	.	4G/	.	.	.	.	.	.	.
2.F\	.	.	.	1A	.	2A/	.	2r	.	[1cc	stel-
.	.	.	.	.	.	[2c\	-ca-	2f\	vo-	.	.
4E\	.	.	.	.	.	.	.	.	.	.	.
=46	=46	=46	=46	=46	=46	=46	=46	=46	=46	=46	=46
1C	-ris	1C	stel-	0G	-ris	4c\]	.	2e\	-ca-	1cc]	.
.	.	.	.	.	.	4B\	.	.	.	.	.
.	.	.	.	.	.	4G/	.	2c\	.	.	.
.	.	.	.	.	.	4A/	.	.	.	.	.
1G	stel-	1GG	-la	.	.	4B\	.	2.d\	.	1b	-la
.	.	.	.	.	.	4c\	.	.	.	.	.
.	.	.	.	.	.	[2d\	.	.	.	.	.
.	.	.	.	.	.	.	.	4e\	.	.	.
=47	=47	=47	=47	=47	=47	=47	=47	=47	=47	=47	=47
1F	-la	1D	vo-	1r	.	4d\]	.	1f	.	1a	vo-
.	.	.	.	.	.	4c\	.	.	.	.	.
.	.	.	.	.	.	4A/	.	.	.	.	.
.	.	.	.	.	.	4B\	.	.	.	.	.
1A	vo-	2.AA/	-ca-	[1c	stel-	4c\	.	2e\	.	1a	-ca-
.	.	.	.	.	.	4d\	.	.	.	.	.
.	.	.	.	.	.	[2e\	.	2c\	.	.	.
.	.	4BB/	.	.	.	.	.	.	.	.	.
=48	=48	=48	=48	=48	=48	=48	=48	=48	=48	=48	=48
2.E\	-ca-	1C	.	1c]	.	4e\]	.	1e	.	0g	-ris,
.	.	.	.	.	.	4f\	.	.	.	.	.
.	.	.	.	.	.	2.g\	.	.	.	.	.
4F\	.	.	.	.	.	.	.	.	.	.	.
4G\	.	1GG	-ris,	1B	-la	.	.	2d\	.	.	.
4D\	.	.	.	.	.	4f\	.	.	.	.	.
2G\	.	.	.	.	.	4d\	.	2B\	.	.	.
.	.	.	.	.	.	4e\	.	.	.	.	.
=49	=49	=49	=49	=49	=49	=49	=49	=49	=49	=49	=49
2F\	.	0r	.	1A	vo-	2f\	.	1c	.	1r	.
2E\	.	.	.	.	.	1g	.	.	.	.	.
1D	.	.	.	1A	-ca-	.	.	[1d	.	1a	Que
.	.	.	.	.	.	2f#i\	.	.	.	.	.
=50	=50	=50	=50	=50	=50	=50	=50	=50	=50	=50	=50
0GG	-ris,	0r	.	0G	-ris,	1g	-ris,	2d\]	.	1.b	so-
.	.	.	.	.	.	.	.	2B\	.	.	.
.	.	.	.	.	.	1d	Que	1B	-ris,	.	.
.	.	.	.	.	.	.	.	.	.	2g/	.
=51	=51	=51	=51	=51	=51	=51	=51	=51	=51	=51	=51
0r	.	0r	.	0r	.	2.e\	so-	0r	.	1g	-lem
.	.	.	.	.	.	4c\	.	.	.	.	.
.	.	.	.	.	.	2c\	-lem	.	.	1g	jus-
.	.	.	.	.	.	[2e\	jus-	.	.	.	.
=52	=52	=52	=52	=52	=52	=52	=52	=52	=52	=52	=52
0r	.	0r	.	0r	.	4e\]	.	0r	.	1f	-ti-
.	.	.	.	.	.	4d\	.	.	.	.	.
.	.	.	.	.	.	1d	-ti-	.	.	.	.
.	.	.	.	.	.	.	.	.	.	1e	-ti-
.	.	.	.	.	.	2c\	-ti-	.	.	.	.
=53	=53	=53	=53	=53	=53	=53	=53	=53	=53	=53	=53
0r	.	1r	.	0r	.	2.d\	-e	0r	.	2.f/	-e
.	.	.	.	.	.	4B\	.	.	.	4g/	.
.	.	2r	.	.	.	2c\	.	.	.	4a/	.
.	.	.	.	.	.	.	.	.	.	4b\	.
.	.	2D\	Que	.	.	2d\	.	.	.	[2a/	pa-
=54	=54	=54	=54	=54	=54	=54	=54	=54	=54	=54	=54
0r	.	1E	so-	0r	.	1G	pa-	0r	.	4a/]	.
.	.	.	.	.	.	.	.	.	.	4g/	.
.	.	.	.	.	.	.	.	.	.	1g	.
.	.	1D	-lem	.	.	1A	.	.	.	.	.
.	.	.	.	.	.	.	.	.	.	2f#i/	.
=55	=55	=55	=55	=55	=55	=55	=55	=55	=55	=55	=55
0r	.	2r	.	0r	.	1G	-ris,	1r	.	0g	-ris,
.	.	2G\	jus-	.	.	.	.	.	.	.	.
.	.	2C/	-ti-	.	.	2r	.	1e	Que	.	.
.	.	2E\	-ti-	.	.	2G/	que	.	.	.	.
=56	=56	=56	=56	=56	=56	=56	=56	=56	=56	=56	=56
0r	.	2.D\	-e	0A	Que	4A/	so-	1.f	so-	0r	.
.	.	.	.	.	.	4G/	.	.	.	.	.
.	.	.	.	.	.	4F/	.	.	.	.	.
.	.	4C/	.	.	.	4E/	.	.	.	.	.
.	.	1D	.	.	.	1F	.	.	.	.	.
.	.	.	.	.	.	.	.	2d\	.	.	.
=57	=57	=57	=57	=57	=57	=57	=57	=57	=57	=57	=57
1r	.	1GG	pa-	1.B	so-	2.G/	.	1d	-lem	0r	.
.	.	.	.	.	.	4A/	.	.	.	.	.
1GG	Que	1G	.	.	.	4B\	.	1d	jus-	.	.
.	.	.	.	.	.	4c\	.	.	.	.	.
.	.	.	.	2G/	.	4d\	.	.	.	.	.
.	.	.	.	.	.	4B\	.	.	.	.	.
=58	=58	=58	=58	=58	=58	=58	=58	=58	=58	=58	=58
1C	so-	2.E\	.	1G	-lem	2c\	-lem	1c	-ti-	0r	.
.	.	.	.	.	.	2e\	jus-	.	.	.	.
.	.	4F\	.	.	.	.	.	.	.	.	.
1GG	-lem	4G\	.	1G	jus-	2.d\	-ti-	1B	-ti-	.	.
.	.	4A\	.	.	.	.	.	.	.	.	.
.	.	4B\	.	.	.	.	.	.	.	.	.
.	.	4G\	.	.	.	4c\	-ti-	.	.	.	.
=59	=59	=59	=59	=59	=59	=59	=59	=59	=59	=59	=59
1r	.	2A\	.	1F	-ti-	1A	-e	2.c\	-e	0r	.
.	.	2F\	.	.	.	.	.	.	.	.	.
.	.	.	.	.	.	.	.	4d\	.	.	.
1C	jus-	1G	.	1E	-ti-	2.c\	pa-	4e\	.	.	.
.	.	.	.	.	.	.	.	4f\	.	.	.
.	.	.	.	.	.	.	.	[2e\	pa-	.	.
.	.	.	.	.	.	4B\	.	.	.	.	.
=60	=60	=60	=60	=60	=60	=60	=60	=60	=60	=60	=60
1D	-ti-	2F\	.	2.F/	-e	4A/	.	4e\]	.	0r	.
.	.	.	.	.	.	4G/	.	4d\	.	.	.
.	.	2D\	.	.	.	2A/	-ris,	1d	.	.	.
.	.	.	.	4G/	.	.	.	.	.	.	.
1AA	-ti-	1E	.	4A/	.	2r	.	.	.	.	.
.	.	.	.	4B\	.	.	.	.	.	.	.
.	.	.	.	[2A/	pa-	2A/	pa-	2c#i\	.	.	.
=61	=61	=61	=61	=61	=61	=61	=61	=61	=61	=61	=61
2BB/	-e	0D	-ris,	4A/]	.	2F/	.	0d	-ris,	1r	.
.	.	.	.	4G/	.	.	.	.	.	.	.
2GG/	.	.	.	1G	.	2G/	.	.	.	.	.
1D	pa-	.	.	.	.	1A	.	.	.	1a	A
.	.	.	.	2F#i/	.	.	.	.	.	.	.
=62	=62	=62	=62	=62	=62	=62	=62	=62	=62	=62	=62
0GG	-ris,	1r	.	0G	-ris,	1G	-ris,	1r	.	1.b	quo
.	.	1G	A	.	.	1r	.	1d	A	.	.
.	.	.	.	.	.	.	.	.	.	2a/	il-
=63	=63	=63	=63	=63	=63	=63	=63	=63	=63	=63	=63
0r	.	2E\	quo	0r	.	2r	.	1e	quo	4g/	-lu-
.	.	.	.	.	.	.	.	.	.	4f/	.
.	.	2C/	il-	.	.	2G/	A	.	.	4g/	.
.	.	.	.	.	.	.	.	.	.	4e/	.
.	.	1D	-lu-	.	.	2F/	quo	1d	il-	2f/	-mi-
.	.	.	.	.	.	2D/	il-	.	.	[2a/	-na-
=64	=64	=64	=64	=64	=64	=64	=64	=64	=64	=64	=64
0r	.	2E\	.	1r	.	2G/	-lu-	2B\	-lu-	4a/]	.
.	.	.	.	.	.	.	.	.	.	4g/	.
.	.	2C/	-mi-	.	.	2E/	-mi-	2c\	-mi-	2.g/	.
.	.	1D	-na-	1A	A	2F/	-na-	1A	-na-	.	.
.	.	.	.	.	.	.	.	.	.	4f#i/	.
.	.	.	.	.	.	2D/	.	.	.	4f#i/	.
.	.	.	.	.	.	.	.	.	.	4e/	.
=65	=65	=65	=65	=65	=65	=65	=65	=65	=65	=65	=65
1r	.	0GG	-ris,	1.B	quo	1d	-ris,	0G	-ris,	0g	-ris,
1D	A	.	.	.	.	2r	.	.	.	.	.
.	.	.	.	2A/	il-	2d\	a	.	.	.	.
=66	=66	=66	=66	=66	=66	=66	=66	=66	=66	=66	=66
1E	quo	2r	.	4G/	-lu-	2B\	quo	0r	.	0r	.
.	.	.	.	4F/	.	.	.	.	.	.	.
.	.	2G\	il-	4G/	.	2c\	il-	.	.	.	.
.	.	.	.	4E/	.	.	.	.	.	.	.
1D	il-	2A\	-lu-	2F/	-mi-	1d	-lu-	.	.	.	.
.	.	2F\	-mi-	[2A/	-na-	.	.	.	.	.	.
=67	=67	=67	=67	=67	=67	=67	=67	=67	=67	=67	=67
2BB/	-lu-	1G	-na-	4A/]	.	2d\	-mi-	0r	.	0r	.
.	.	.	.	4G/	.	.	.	.	.	.	.
2C/	-mi-	.	.	1G	.	1e	-na-	.	.	.	.
1AA	-na-	1C	-ris,	.	.	.	.	.	.	.	.
.	.	.	.	2F#i/	.	4d\	.	.	.	.	.
.	.	.	.	.	.	4c\	.	.	.	.	.
=68	=68	=68	=68	=68	=68	=68	=68	=68	=68	=68	=68
0GG	-ris,	2r	.	0G	-ris.	2B\	.	4G/	a	2r	.
.	.	.	.	.	.	.	.	4A/	.	.	.
.	.	2G\	a	.	.	2G/	.	4B\	.	4g/	a
.	.	.	.	.	.	.	.	4c\	.	4a/	.
.	.	2G\	quo	.	.	1g	.	2d\	.	4b\	.
.	.	.	.	.	.	.	.	.	.	4cc\	.
.	.	2G\	il-	.	.	.	.	2B\	.	[2dd\	.
=69	=69	=69	=69	=69	=69	=69	=69	=69	=69	=69	=69
1r	.	2A\	-lu-	0r	.	2e\	.	2c\	.	4dd\]	.
.	.	.	.	.	.	.	.	.	.	4cc\	.
.	.	2F\	-mi-	.	.	2f\	.	2A/	.	2cc\	.
2r	.	1G	-na-	.	.	1d	-ris,	4G/	quo	2b\	.
.	.	.	.	.	.	.	.	4A/	.	.	.
2G\	a	.	.	.	.	.	.	4B\	.	[2dd\	quo
.	.	.	.	.	.	.	.	4c\	.	.	.
=70	=70	=70	=70	=70	=70	=70	=70	=70	=70	=70	=70
2G\	quo	1GG	-ris,	0r	.	2r	.	2d\	.	2dd\]	.
2G\	il-	.	.	.	.	2g\	a	2B\	il-	2dd\	il-
*	*	*	*	*	*	*	*	*	*	*M2/1	*
*	*	*	*	*	*	*	*	*	*	*met(3)	*
2A\	-lu-	1r	.	.	.	2e\	quo	2c\	-lu-	3cc\	-lu-
.	.	.	.	.	.	.	.	.	.	3a/	.
2F\	-mi-	.	.	.	.	2f\	il-	2A/	-mi-	.	.
.	.	.	.	.	.	.	.	.	.	3cc\	-mi-
=71	=71	=71	=71	=71	=71	=71	=71	=71	=71	=71	=71
*	*	*	*	*	*	*M2/1	*	*	*	*M2/1	*
*	*	*	*	*	*	*met(3)	*	*	*	*met(C|)	*
1G	-na-	2r	.	0r	.	3d\	-lu-	4G/	-na-	2b\	-na-
.	.	.	.	.	.	.	.	4A/	.	.	.
.	.	.	.	.	.	3e\	.	.	.	.	.
.	.	2G\	a	.	.	.	.	4B\	.	4g/	.
.	.	.	.	.	.	3d\	-mi-	.	.	.	.
.	.	.	.	.	.	.	.	4c\	.	4a/	.
*	*	*	*	*	*	*M2/1	*	*	*	*	*
*	*	*	*	*	*	*met(C|)	*	*	*	*	*
1GG	-ris.	2G\	quo	.	.	1g	-na-	2d\	.	4b\	.
.	.	.	.	.	.	.	.	.	.	4cc\	.
.	.	2G\	il-	.	.	.	.	2B\	.	[2dd\	.
=72	=72	=72	=72	=72	=72	=72	=72	=72	=72	=72	=72
0r	.	2A\	-lu-	0r	.	2e\	.	2c\	.	4dd\]	.
.	.	.	.	.	.	.	.	.	.	4cc\	.
.	.	2F\	-mi-	.	.	2f\	.	2A/	.	1cc	.
.	.	1G	-na-	.	.	1d	.	2B\	.	.	.
.	.	.	.	.	.	.	.	[2G/	.	2b\	.
=73	=73	=73	=73	=73	=73	=73	=73	=73	=73	=73	=73
1r	.	0C	-ris.	0r	.	0c	-ris.	2G/]	.	0cc	-ris.
.	.	.	.	.	.	.	.	2A/	.	.	.
1C	Te	.	.	.	.	.	.	2G/	.	.	.
.	.	.	.	.	.	.	.	[2A/	.	.	.
=74	=74	=74	=74	=74	=74	=74	=74	=74	=74	=74	=74
2BB/	de-	0r	.	1r	.	0r	.	4A/]	.	0r	.
.	.	.	.	.	.	.	.	4G/	.	.	.
2GG/	-us	.	.	.	.	.	.	1G	.	.	.
1AA	pa-	.	.	1c	Te	.	.	.	.	.	.
.	.	.	.	.	.	.	.	2F#i/	.	.	.
=75	=75	=75	=75	=75	=75	=75	=75	=75	=75	=75	=75
1GG	-ter,	1G	Tu	2B\	de-	0r	.	1G	-ris.	0r	.
.	.	.	.	2G/	-us	.	.	.	.	.	.
1r	.	2F\	de-	1A	pa-	.	.	1r	.	.	.
.	.	2D\	-us	.	.	.	.	.	.	.	.
=76	=76	=76	=76	=76	=76	=76	=76	=76	=76	=76	=76
1C	ut	1E	pa-	1G	-ter,	0r	.	0r	.	0r	.
2BB/	de-	1D	-ter,	1d	ut	.	.	.	.	.	.
2GG/	-i	.	.	.	.	.	.	.	.	.	.
=77	=77	=77	=77	=77	=77	=77	=77	=77	=77	=77	=77
1AA	ma-	1r	.	2c\	de-	0r	.	0r	.	0r	.
.	.	.	.	2A/	-i	.	.	.	.	.	.
1GG	-ter	1G	ut	1B	ma-	.	.	.	.	.	.
=78	=78	=78	=78	=78	=78	=78	=78	=78	=78	=78	=78
1r	.	2F\	de-	4A/	.	0r	.	0r	.	0r	.
.	.	.	.	4G/	.	.	.	.	.	.	.
.	.	2D\	-i	4A/	.	.	.	.	.	.	.
.	.	.	.	4B\	.	.	.	.	.	.	.
1AA	Fi-	1E	ma-	4c\	.	.	.	.	.	.	.
.	.	.	.	4d\	.	.	.	.	.	.	.
.	.	.	.	4e\	.	.	.	.	.	.	.
.	.	.	.	4c\	.	.	.	.	.	.	.
=79	=79	=79	=79	=79	=79	=79	=79	=79	=79	=79	=79
2.BB/	e-	1D	-ter	1d	-ter	0r	.	0r	.	0r	.
4GG/	.	.	.	.	.	.	.	.	.	.	.
1GG	-res	1G	Fi-	2r	.	.	.	.	.	.	.
.	.	.	.	2B\	Fi-	.	.	.	.	.	.
=80	=80	=80	=80	=80	=80	=80	=80	=80	=80	=80	=80
2r	.	2.A\	e-	2c\	e-	0r	.	0r	.	0r	.
2.D\	et	.	.	2A/	-res	.	.	.	.	.	.
.	.	4F\	.	.	.	.	.	.	.	.	.
.	.	2F\	-res	1d	et	.	.	.	.	.	.
4C/	.	.	.	.	.	.	.	.	.	.	.
2BB/	.	2D\	et	.	.	.	.	.	.	.	.
=81	=81	=81	=81	=81	=81	=81	=81	=81	=81	=81	=81
2AA/	ip-	2E\	ip-	2c\	ip-	0r	.	0r	.	0r	.
2GG/	-se	2G\	-se	2B\	-se	.	.	.	.	.	.
1D	fra-	2.F#i\	fra-	1A	fra-	.	.	.	.	.	.
.	.	4E\	.	.	.	.	.	.	.	.	.
=82	=82	=82	=82	=82	=82	=82	=82	=82	=82	=82	=82
1GG	-ter,	1G	-ter,	0G	-ter,	0r	.	0r	.	0r	.
[1C	Cu-	[1E	Cu-	.	.	.	.	.	.	.	.
=83	=83	=83	=83	=83	=83	=83	=83	=83	=83	=83	=83
2C/]	.	2E\]	.	2.A/	Cu-	0r	.	0r	.	0r	.
2C/	-jus	2E\	-jus	.	.	.	.	.	.	.	.
.	.	.	.	4A/	-jus	.	.	.	.	.	.
1D	e-	1F	e-	2B\	e-	.	.	.	.	.	.
.	.	.	.	[2A/	-ras	.	.	.	.	.	.
=84	=84	=84	=84	=84	=84	=84	=84	=84	=84	=84	=84
2C/	-ras	2E\	-ras	4A/]	.	0r	.	0r	.	0r	.
.	.	.	.	4G/	.	.	.	.	.	.	.
2BB/	fi-	2.D\	fi-	1G	fi-	.	.	.	.	.	.
1AA	-li-	.	.	.	.	.	.	.	.	.	.
.	.	4C/	.	.	.	.	.	.	.	.	.
.	.	4C/	-li-	2F#i/	-li-	.	.	.	.	.	.
.	.	4BB/	.	.	.	.	.	.	.	.	.
=85	=85	=85	=85	=85	=85	=85	=85	=85	=85	=85	=85
1GG	-a,	2.D\	-a,	1G	-a,	0r	.	0r	.	0r	.
.	.	4E\	.	.	.	.	.	.	.	.	.
2.D\	cu-	1F	.	2.A/	cu-	.	.	.	.	.	.
4D\	-jus	.	.	4A/	-jus	.	.	.	.	.	.
=86	=86	=86	=86	=86	=86	=86	=86	=86	=86	=86	=86
2D\	e-	0r	.	2B\	e-	0r	.	1r	.	0r	.
2C/	-ras	.	.	2.A/	-ras	.	.	.	.	.	.
1BB	fi-	.	.	.	.	.	.	1d	Sanc-	.	.
.	.	.	.	4G/	.	.	.	.	.	.	.
.	.	.	.	[2G/	fi-	.	.	.	.	.	.
=87	=87	=87	=87	=87	=87	=87	=87	=87	=87	=87	=87
1AA	-li-	1r	.	2G/]	.	1r	.	2c\	-ti-	1cc	Sanc-
.	.	.	.	2F#i/	-li-	.	.	2A/	-fi-	.	.
1GG	-a,	2r	.	1G	-a,	1g	Sanc-	1B	-ca-	2b\	-ti-
.	.	2G\	Sanc-	.	.	.	.	.	.	2g/	-fi-
=88	=88	=88	=88	=88	=88	=88	=88	=88	=88	=88	=88
1r	.	2D\	-ti-	1r	.	2f\	-ti-	1A	-vit,	1a	-ca-
.	.	2F\	-fi-	.	.	2d\	-fi-	.	.	.	.
2r	.	1C	-ca-	1c	Sanc-	1e	-ca-	1r	.	1g	-vit,
2C/	Sanc-	.	.	.	.	.	.	.	.	.	.
=89	=89	=89	=89	=89	=89	=89	=89	=89	=89	=89	=89
2GG/	-ti-	1G	-vit,	2B\	-ti-	1d	-vit,	1d	sanc-	1r	.
2.G\	-fi-	.	.	2G/	-fi-	.	.	.	.	.	.
.	.	1r	.	1A	-ca-	1r	.	2c\	-tam	1cc	sanc-
4F#i\	.	.	.	.	.	.	.	.	.	.	.
4F#i\	-ca-	.	.	.	.	.	.	2A/	ser-	.	.
4E\	.	.	.	.	.	.	.	.	.	.	.
=90	=90	=90	=90	=90	=90	=90	=90	=90	=90	=90	=90
1G	-vit,	2r	.	1G	-vit,	1g	sanc-	1B	-va-	2b\	-tam
.	.	2G\	sanc-	.	.	.	.	.	.	2g/	ser-
1r	.	2D\	-tam	1r	.	2f\	-tam	2.A/	.	1a	-va-
.	.	2F\	ser-	.	.	2d\	ser-	.	.	.	.
.	.	.	.	.	.	.	.	4B\	.	.	.
=91	=91	=91	=91	=91	=91	=91	=91	=91	=91	=91	=91
2r	.	1C	-va-	1c	sanc-	1e	-va-	2c\	.	1g	-vit,
2C/	sanc-	.	.	.	.	.	.	2G/	-vit,	.	.
2GG/	-tam	2G\	-vit,	2B\	-tam	1d	-vit,	2r	.	1r	.
[2G\	ser-	2GG/	ser-	2G/	ser-	.	.	2d\	Et	.	.
=92	=92	=92	=92	=92	=92	=92	=92	=92	=92	=92	=92
4G\]	.	1D	-va-	1A	-va-	2r	.	1d	mit-	1a	Et
4F#i\	.	.	.	.	.	.	.	.	.	.	.
4F#i\	-va-	.	.	.	.	2d\	Et	.	.	.	.
4E\	.	.	.	.	.	.	.	.	.	.	.
1G	-vit,	1GG	-vit,	1G	-vit,	1d	mit-	1B	-tens,	2.b\	mit-
.	.	.	.	.	.	.	.	.	.	4g/	.
=93	=93	=93	=93	=93	=93	=93	=93	=93	=93	=93	=93
2r	.	2r	.	2r	.	1B	-tens,	2r	.	1g	-tens,
2GG/	Et	2G\	Et	2G/	Et	.	.	2d\	et	.	.
1D	mit-	2.F#i\	mit-	1A	mit-	2r	.	1d	mit-	2r	.
.	.	.	.	.	.	2d\	et	.	.	2a/	et
.	.	4E\	.	.	.	.	.	.	.	.	.
=94	=94	=94	=94	=94	=94	=94	=94	=94	=94	=94	=94
1GG	-tens	1G	-tens	1G	-tens	1d	mit-	1B	-tens	2.b\	mit-
.	.	.	.	.	.	.	.	.	.	4g/	.
2r	.	2r	.	2r	.	1B	-tens	2r	.	2g/	-tens
2G\	sic	2GG/	sic	2B\	sic	.	.	2d\	sic	2dd\	sic
=95	=95	=95	=95	=95	=95	=95	=95	=95	=95	=95	=95
2G\	sa-	2C/	sa-	2c\	sa-	0r	.	2e\	sa-	2cc\	sa-
2G\	-lu-	2GG/	-lu-	2d\	-lu-	.	.	2g\	-lu-	2b\	-lu-
1A	-ta-	1D	-ta-	1d	-ta-	.	.	2.f#i\	-ta-	1a	-ta-
.	.	.	.	.	.	.	.	4e\	.	.	.
=96	=96	=96	=96	=96	=96	=96	=96	=96	=96	=96	=96
1G	-vit,	1GG	-vit,	0B	-vit,	1r	.	1g	-vit,	1b	-vit,
2r	.	2r	.	.	.	2r	.	2r	.	1dd	sic
2GG/	sic	2G\	sic	.	.	2B\	sic	2d\	sic	.	.
=97	=97	=97	=97	=97	=97	=97	=97	=97	=97	=97	=97
2C/	sa-	2G\	sa-	0r	.	2c\	sa-	2e\	sa-	2cc\	sa-
2GG/	-lu-	2G\	-lu-	.	.	2d\	-lu-	2g\	-lu-	2b\	-lu-
1D	-ta-	1A	-ta-	.	.	1d	-ta-	2.f#i\	-ta-	1a	-ta-
.	.	.	.	.	.	.	.	4e\	.	.	.
=98	=98	=98	=98	=98	=98	=98	=98	=98	=98	=98	=98
1GG	-vit:	0G	-vit:	0r	.	1B	-vit:	1g	-vit:	1b	-vit:
1r	.	.	.	.	.	1r	.	1r	.	1r	.
=99	=99	=99	=99	=99	=99	=99	=99	=99	=99	=99	=99
0GG	A-	0r	.	1r	.	0d	A-	0g	A-	0b	A-
.	.	.	.	[1G	A-	.	.	.	.	.	.
=100	=100	=100	=100	=100	=100	=100	=100	=100	=100	=100	=100
0C	.	0G	A-	1G]	.	0c	-ve	0e	.	[0cc	-ve
.	.	.	.	[1c	.	.	.	.	.	.	.
=101	=101	=101	=101	=101	=101	=101	=101	=101	=101	=101	=101
0AA	-ve	0A	-ve	2c\]	.	0c	ple-	0e	-ve	0cc]	.
.	.	.	.	2A/	.	.	.	.	.	.	.
.	.	.	.	[1A	-ve	.	.	.	.	.	.
=102	=102	=102	=102	=102	=102	=102	=102	=102	=102	=102	=102
0D	ple-	0F	ple-	1A]	.	0d	-na	1.f	ple-	0a	ple-
.	.	.	.	[1d	ple-	.	.	.	.	.	.
.	.	.	.	.	.	.	.	2d\	.	.	.
=103	=103	=103	=103	=103	=103	=103	=103	=103	=103	=103	=103
0GG	-na	0G	-na	2d\]	.	1r	.	0d	-na	0g	-na
.	.	.	.	2c\	.	.	.	.	.	.	.
.	.	.	.	1B	.	[1d	gra-	.	.	.	.
=104	=104	=104	=104	=104	=104	=104	=104	=104	=104	=104	=104
0D	gra-	1r	.	0A	-na	1d]	.	1r	.	0f	gra-
.	.	1D	gra-	.	.	1A	.	1f	gra-	.	.
=105	=105	=105	=105	=105	=105	=105	=105	=105	=105	=105	=105
1.C	-ti-	1.E	-ti-	1r	.	0c	-ti-	2.e\	-ti-	0g	-ti-
.	.	.	.	.	.	.	.	4d\	.	.	.
.	.	.	.	1G	gra-	.	.	1e	.	.	.
2BB/	.	2F\	.	.	.	.	.	.	.	.	.
=106	=106	=106	=106	=106	=106	=106	=106	=106	=106	=106	=106
[0GGl	-a.	[0Gl	-a.	1.G	-ti-	[0Bl	-a.	[0dl	-a.	[0gl	-a.
.	.	.	.	2F/	.	.	.	.	.	.	.
=107	=107	=107	=107	=107	=107	=107	=107	=107	=107	=107	=107
0GG]	.	0G]	.	0Dl	-a.	0B]	.	0d]	.	0g]	.
!!LO:LB:i:g=z
=108||	=108||	=108||	=108||	=108||	=108||	=108||	=108||	=108||	=108||	=108||	=108||
*>B	*	*>B	*	*>B	*	*>B	*	*>B	*	*>B	*
*clefF4	*	*clefF4	*	*clefGv2	*	*clefGv2	*	*clefGv2	*	*clefG2	*
*k[]	*	*k[]	*	*k[]	*	*k[]	*	*k[]	*	*k[]	*
*M2/1	*	*M2/1	*	*M2/1	*	*M2/1	*	*M2/1	*	*M2/1	*
*met(C|)	*	*met(C|)	*	*met(C|)	*	*met(C|)	*	*met(C|)	*	*met(C|)	*
!!!OMD: Secunda pars: Per illud ave prolatum
!!section: Secunda pars: Per illud ave prolatum
0r	.	0r	.	0r	.	0r	.	1d	Per	1r	.
.	.	.	.	.	.	.	.	2f\	il-	1a	Per
.	.	.	.	.	.	.	.	2f\	-lud	.	.
=109	=109	=109	=109	=109	=109	=109	=109	=109	=109	=109	=109
0r	.	0r	.	0r	.	0r	.	1f	a-	2cc\	il-
.	.	.	.	.	.	.	.	.	.	2cc\	-lud
.	.	.	.	.	.	.	.	2e\	-ve	1cc	a-
.	.	.	.	.	.	.	.	4c\	pro-	.	.
.	.	.	.	.	.	.	.	4d\	.	.	.
=110	=110	=110	=110	=110	=110	=110	=110	=110	=110	=110	=110
0r	.	0r	.	0r	.	0r	.	4e\	.	2b\	-ve
.	.	.	.	.	.	.	.	4f\	.	.	.
.	.	.	.	.	.	.	.	2.g\	-la-	2g/	pro-
.	.	.	.	.	.	.	.	.	.	1a	-la-
.	.	.	.	.	.	.	.	4f#i\	.	.	.
.	.	.	.	.	.	.	.	4f#i\	.	.	.
.	.	.	.	.	.	.	.	4e\	.	.	.
=111	=111	=111	=111	=111	=111	=111	=111	=111	=111	=111	=111
0r	.	0r	.	0r	.	0r	.	2g\	.	4g/	.
.	.	.	.	.	.	.	.	.	.	4a/	.
.	.	.	.	.	.	.	.	4G/	.	4b\	.
.	.	.	.	.	.	.	.	4A/	.	4cc\	.
.	.	.	.	.	.	.	.	4B\	.	2.dd\	.
.	.	.	.	.	.	.	.	4c\	.	.	.
.	.	.	.	.	.	.	.	4d\	.	.	.
.	.	.	.	.	.	.	.	4e\	.	4cc\	.
=112	=112	=112	=112	=112	=112	=112	=112	=112	=112	=112	=112
0r	.	0r	.	0r	.	0r	.	2f\	.	2a/	.
.	.	.	.	.	.	.	.	2.g\	.	2g/	.
.	.	.	.	.	.	.	.	.	.	1a	.
.	.	.	.	.	.	.	.	4f#i\	.	.	.
.	.	.	.	.	.	.	.	4f#i\	.	.	.
.	.	.	.	.	.	.	.	4e\	.	.	.
=113	=113	=113	=113	=113	=113	=113	=113	=113	=113	=113	=113
0r	.	0r	.	0r	.	0r	.	0g	-tum	1g	-tum
.	.	.	.	.	.	.	.	.	.	2r	.
.	.	.	.	.	.	.	.	.	.	2g/	Et
=114	=114	=114	=114	=114	=114	=114	=114	=114	=114	=114	=114
0r	.	0r	.	0r	.	0r	.	2r	.	2a/	tu-
.	.	.	.	.	.	.	.	2G/	Et	2b\	-um
.	.	.	.	.	.	.	.	2A/	tu-	2.cc\	res-
.	.	.	.	.	.	.	.	2B\	-um	.	.
.	.	.	.	.	.	.	.	.	.	4b\	.
=115	=115	=115	=115	=115	=115	=115	=115	=115	=115	=115	=115
0r	.	0r	.	0r	.	0r	.	1.c	res-	2g/	-pon-
.	.	.	.	.	.	.	.	.	.	1a	-sum
.	.	.	.	.	.	.	.	2B\	-pon-	[2b\	gra-
=116	=116	=116	=116	=116	=116	=116	=116	=116	=116	=116	=116
0r	.	0r	.	0r	.	0r	.	2.G/	-sum	4b\]	.
.	.	.	.	.	.	.	.	.	.	4a/	.
.	.	.	.	.	.	.	.	.	.	2.g/	.
.	.	.	.	.	.	.	.	4B\	.	.	.
.	.	.	.	.	.	.	.	1A	gra-	.	.
.	.	.	.	.	.	.	.	.	.	4f#i/	.
.	.	.	.	.	.	.	.	.	.	4f#i/	.
.	.	.	.	.	.	.	.	.	.	4e/	.
=117	=117	=117	=117	=117	=117	=117	=117	=117	=117	=117	=117
0r	.	0r	.	0r	.	0r	.	0G	-tum	1g	-tum
.	.	.	.	.	.	.	.	.	.	1r	.
=118	=118	=118	=118	=118	=118	=118	=118	=118	=118	=118	=118
0r	.	0r	.	0r	.	0r	.	1r	.	1a	Est
.	.	.	.	.	.	.	.	1d	Est	[1b	ex
=119	=119	=119	=119	=119	=119	=119	=119	=119	=119	=119	=119
0r	.	0r	.	0r	.	0r	.	1.e	ex	2b\]	.
.	.	.	.	.	.	.	.	.	.	2g/	.
.	.	.	.	.	.	.	.	.	.	2g/	te
.	.	.	.	.	.	.	.	2c\	.	[2cc\	ver-
=120	=120	=120	=120	=120	=120	=120	=120	=120	=120	=120	=120
0r	.	0r	.	0r	.	0r	.	2c\	te	2cc\]	-bum
.	.	.	.	.	.	.	.	2g\	ver-	2b\	in-
.	.	.	.	.	.	.	.	2f\	-bum	2a/	-car-
.	.	.	.	.	.	.	.	[2e\	in-	2g/	-na-
=121	=121	=121	=121	=121	=121	=121	=121	=121	=121	=121	=121
0r	.	0r	.	0r	.	0r	.	4e\]	.	2f/	.
.	.	.	.	.	.	.	.	4d\	-car-	.	.
.	.	.	.	.	.	.	.	2.d\	-na-	2d/	.
.	.	.	.	.	.	.	.	.	.	1e	.
.	.	.	.	.	.	.	.	4c#i\	.	.	.
.	.	.	.	.	.	.	.	4c#i\	.	.	.
.	.	.	.	.	.	.	.	4B\	.	.	.
=122	=122	=122	=122	=122	=122	=122	=122	=122	=122	=122	=122
0r	.	0r	.	0r	.	0r	.	1d	-tum,	0d	-tum,
.	.	.	.	.	.	.	.	2r	.	.	.
.	.	.	.	.	.	.	.	2d\	Quo	.	.
=123	=123	=123	=123	=123	=123	=123	=123	=123	=123	=123	=123
0r	.	0r	.	0r	.	0r	.	2.f\	sal-	2r	.
.	.	.	.	.	.	.	.	.	.	2d/	Quo
.	.	.	.	.	.	.	.	4g\	.	.	.
.	.	.	.	.	.	.	.	2a\	-van-	2.f/	sal-
.	.	.	.	.	.	.	.	2d\	-tur	.	.
.	.	.	.	.	.	.	.	.	.	4g/	.
=124	=124	=124	=124	=124	=124	=124	=124	=124	=124	=124	=124
0r	.	0r	.	0r	.	0r	.	2.f\	om-	2a/	-van-
.	.	.	.	.	.	.	.	.	.	4d/	-tur
.	.	.	.	.	.	.	.	4e\	.	4e/	.
.	.	.	.	.	.	.	.	2d\	.	4f/	.
.	.	.	.	.	.	.	.	.	.	4g/	.
.	.	.	.	.	.	.	.	2c\	.	[2a/	om-
=125	=125	=125	=125	=125	=125	=125	=125	=125	=125	=125	=125
0r	.	0r	.	0r	.	0r	.	2B\	.	4a/]	.
.	.	.	.	.	.	.	.	.	.	4g/	.
.	.	.	.	.	.	.	.	2G/	.	1g	.
.	.	.	.	.	.	.	.	1A	-ni-	.	.
.	.	.	.	.	.	.	.	.	.	2f#i/	-ni-
=126	=126	=126	=126	=126	=126	=126	=126	=126	=126	=126	=126
0r	.	0r	.	0r	.	0r	.	1G	-a,	2g/	-a,
.	.	.	.	.	.	.	.	.	.	2d/	quo
.	.	.	.	.	.	.	.	2r	.	2.f/	sal-
.	.	.	.	.	.	.	.	2d\	quo	.	.
.	.	.	.	.	.	.	.	.	.	4g/	.
=127	=127	=127	=127	=127	=127	=127	=127	=127	=127	=127	=127
0r	.	0r	.	0r	.	0r	.	2.f\	sal-	2a/	-van-
.	.	.	.	.	.	.	.	.	.	4d/	-tur
.	.	.	.	.	.	.	.	4e\	.	4e/	.
.	.	.	.	.	.	.	.	2d\	-van-	4f/	.
.	.	.	.	.	.	.	.	.	.	4g/	.
.	.	.	.	.	.	.	.	2c\	-tur	[2a/	om-
=128	=128	=128	=128	=128	=128	=128	=128	=128	=128	=128	=128
0r	.	0r	.	0r	.	0r	.	2B\	om-	4a/]	.
.	.	.	.	.	.	.	.	.	.	4g/	.
.	.	.	.	.	.	.	.	2G/	.	1g	.
.	.	.	.	.	.	.	.	1A	-ni-	.	.
.	.	.	.	.	.	.	.	.	.	2f#i/	-ni-
=129	=129	=129	=129	=129	=129	=129	=129	=129	=129	=129	=129
0r	.	0r	.	0r	.	0r	.	4G/	-a,	2g/	-a,
.	.	.	.	.	.	.	.	4A/	.	.	.
.	.	.	.	.	.	.	.	4B\	.	4d/	om-
.	.	.	.	.	.	.	.	4c\	.	4e/	.
.	.	.	.	.	.	.	.	4d\	.	4f/	.
.	.	.	.	.	.	.	.	4e\	.	4g/	.
.	.	.	.	.	.	.	.	4f\	.	2a/	.
.	.	.	.	.	.	.	.	4g\	.	.	.
=130	=130	=130	=130	=130	=130	=130	=130	=130	=130	=130	=130
0r	.	0r	.	0r	.	0r	.	2a\	.	2d/	.
.	.	.	.	.	.	.	.	2d\	om-	4dd\	.
.	.	.	.	.	.	.	.	.	.	4cc\	.
.	.	.	.	.	.	.	.	4g\	.	4b\	.
.	.	.	.	.	.	.	.	4f\	.	4a/	.
.	.	.	.	.	.	.	.	4e\	.	2g/	.
.	.	.	.	.	.	.	.	4d\	.	.	.
=131	=131	=131	=131	=131	=131	=131	=131	=131	=131	=131	=131
0r	.	0r	.	0r	.	0r	.	2c\	.	4cc\	.
.	.	.	.	.	.	.	.	.	.	4b\	.
.	.	.	.	.	.	.	.	4f\	.	4a/	.
.	.	.	.	.	.	.	.	4e\	.	4g/	.
.	.	.	.	.	.	.	.	4d\	.	4f/	.
.	.	.	.	.	.	.	.	4c\	.	4e/	.
.	.	.	.	.	.	.	.	4B\	.	2d/	.
.	.	.	.	.	.	.	.	4A/	.	.	.
=132	=132	=132	=132	=132	=132	=132	=132	=132	=132	=132	=132
0r	.	0r	.	0r	.	0r	.	2G/	.	4dd\	.
.	.	.	.	.	.	.	.	.	.	4cc\	.
.	.	.	.	.	.	.	.	4g\	.	4b\	.
.	.	.	.	.	.	.	.	4f\	.	4a/	.
.	.	.	.	.	.	.	.	4e\	.	4g/	.
.	.	.	.	.	.	.	.	4d\	.	4f/	.
.	.	.	.	.	.	.	.	4c\	.	4e/	.
.	.	.	.	.	.	.	.	4B\	.	4d/	.
=133	=133	=133	=133	=133	=133	=133	=133	=133	=133	=133	=133
0r	.	0r	.	0r	.	0r	.	4A/	.	4f/	.
.	.	.	.	.	.	.	.	4G/	.	4g/	.
.	.	.	.	.	.	.	.	2.c\	.	4a/	.
.	.	.	.	.	.	.	.	.	.	4b\	.
.	.	.	.	.	.	.	.	.	.	2.cc\	.
.	.	.	.	.	.	.	.	4B\	.	.	.
.	.	.	.	.	.	.	.	4A/	.	.	.
.	.	.	.	.	.	.	.	4G/	.	4b\	.
=134	=134	=134	=134	=134	=134	=134	=134	=134	=134	=134	=134
0r	.	0r	.	0r	.	0r	.	2F/	.	4a/	.
.	.	.	.	.	.	.	.	.	.	4g/	.
.	.	.	.	.	.	.	.	2G/	.	2.g/	.
.	.	.	.	.	.	.	.	1A	-ni-	.	.
.	.	.	.	.	.	.	.	.	.	4f#i/	.
.	.	.	.	.	.	.	.	.	.	4f#i/	-ni-
.	.	.	.	.	.	.	.	.	.	4e/	.
=135	=135	=135	=135	=135	=135	=135	=135	=135	=135	=135	=135
0r	.	0r	.	0r	.	0r	.	0Gl	-a.	0gl	-a.
!!LO:LB:i:g=z
=136||	=136||	=136||	=136||	=136||	=136||	=136||	=136||	=136||	=136||	=136||	=136||
*>C	*	*>C	*	*>C	*	*>C	*	*>C	*	*>C	*
*clefF4	*	*clefF4	*	*clefGv2	*	*clefGv2	*	*clefGv2	*	*clefG2	*
*k[]	*	*k[]	*	*k[]	*	*k[]	*	*k[]	*	*k[]	*
*M3/1	*	*M3/1	*	*M3/1	*	*M3/1	*	*M3/1	*	*M3/1	*
*met(C|3)	*	*met(C|3)	*	*met(C|3)	*	*met(C|3)	*	*met(C|3)	*	*met(C|3)	*
!!!OMD: Tertia pars: Nunc mater exort natum
!!section: Tertia pars: Nunc mater exort natum
!	!	!	!	!	!	!	!	!	!	!LO:TX:Z=6:t=Quasi canon at the lower 8ve (S-->T1)	!
0.r	.	0.r	.	0.r	.	0.r	.	1d	Nunc	0.r	.
.	.	.	.	.	.	.	.	1d	ma-	.	.
.	.	.	.	.	.	.	.	1e	-ter	.	.
=137	=137	=137	=137	=137	=137	=137	=137	=137	=137	=137	=137
0.r	.	1D	a-	0.r	.	0.r	.	0f	ex-	0.r	.
.	.	1D	=176	.	.	.	.	.	.	.	.
.	.	1E	-men.	.	.	.	.	1e	-o-	.	.
=138	=138	=138	=138	=138	=138	=138	=138	=138	=138	=138	=138
0.r	.	0F	ex-	0.r	.	0.r	.	1c	-ra	1a	Nunc
.	.	.	.	.	.	.	.	0d	na-	1a	ma-
.	.	1G	-o-	.	.	.	.	.	.	1b	-ter
=139	=139	=139	=139	=139	=139	=139	=139	=139	=139	=139	=139
0.r	.	1A	-ra	1A	Nunc	0.r	.	1.c	.	0cc	ex-
.	.	1F	.	1A	ma-	.	.	.	.	.	.
.	.	.	.	.	.	.	.	2B\	.	.	.
.	.	1G	.	1B	-ter	.	.	1G	.	1b	-o-
=140	=140	=140	=140	=140	=140	=140	=140	=140	=140	=140	=140
0.r	.	1E	na-	0c	ex-	0.r	.	1g	.	1g	-ra
.	.	1F	.	.	.	.	.	1f	.	1.a	na-
.	.	1G	.	1B	-o-	.	.	1d	.	.	.
.	.	.	.	.	.	.	.	.	.	2g/	.
=141	=141	=141	=141	=141	=141	=141	=141	=141	=141	=141	=141
0.r	.	0C	-tum,	1G	-ra	1e	Nunc	1e	.	1g	.
.	.	.	.	0A	na-	1e	ma-	1.c	.	0cc	.
.	.	1r	.	.	.	1f	-ter	.	.	.	.
.	.	.	.	.	.	.	.	2d\	.	.	.
=142	=142	=142	=142	=142	=142	=142	=142	=142	=142	=142	=142
1E	Nunc	0.r	.	1G	.	0g	ex-	0e	-tum,	1b	.
1E	ma-	.	.	0c	.	.	.	.	.	1g	.
1F	-ter	.	.	.	.	1f	-o-	1r	.	1a	.
=143	=143	=143	=143	=143	=143	=143	=143	=143	=143	=143	=143
0G	ex-	0.r	.	1B	.	1d	-ra	0.r	.	0b	-tum,
.	.	.	.	1G	.	1.e	na-	.	.	.	.
1F	-o-	.	.	1A	.	.	.	.	.	1r	.
.	.	.	.	.	.	2d\	.	.	.	.	.
=144	=144	=144	=144	=144	=144	=144	=144	=144	=144	=144	=144
1D	-ra	0.r	.	2B\	.	1d	.	0.r	.	0.r	.
.	.	.	.	1d	.	.	.	.	.	.	.
0E	na-	.	.	.	.	0g	.	.	.	.	.
.	.	.	.	4c#i\	.	.	.	.	.	.	.
.	.	.	.	4B\	.	.	.	.	.	.	.
.	.	.	.	1c#i	.	.	.	.	.	.	.
=145	=145	=145	=145	=145	=145	=145	=145	=145	=145	=145	=145
0D	-tum,	0.r	.	1.d	-tum,	1.f	.	1d	Ut	0.r	.
.	.	.	.	.	.	.	.	1d	nos-	.	.
.	.	.	.	2c\	.	2e\	.	.	.	.	.
1r	.	.	.	1A	.	1c	.	1e	-trum	.	.
=146	=146	=146	=146	=146	=146	=146	=146	=146	=146	=146	=146
0.r	.	1D	Ut	0.r	.	1.d	.	0f	tol-	0.r	.
.	.	1D	nos-	.	.	.	.	.	.	.	.
.	.	.	.	.	.	2c\	.	.	.	.	.
.	.	1E	-trum	.	.	1B	.	1e	-lat	.	.
=147	=147	=147	=147	=147	=147	=147	=147	=147	=147	=147	=147
0.r	.	0F	tol-	0.r	.	0A	-tum,	1c	re-	1a	Ut
.	.	.	.	.	.	.	.	0d	-a-	1a	nos-
.	.	1G	-lat	.	.	1r	.	.	.	1b	-trum
=148	=148	=148	=148	=148	=148	=148	=148	=148	=148	=148	=148
0.r	.	1A	re-	1A	Ut	0.r	.	1.c	.	0cc	tol-
.	.	1F	.	1A	nos-	.	.	.	.	.	.
.	.	.	.	.	.	.	.	2B\	.	.	.
.	.	1G	.	1B	-trum	.	.	1G	.	1b	-lat
=149	=149	=149	=149	=149	=149	=149	=149	=149	=149	=149	=149
0.r	.	1E	-a-	0c	tol-	0.r	.	1g	.	1g	re-
.	.	1F	.	.	.	.	.	1f	.	1.a	-a-
.	.	1G	.	1B	-lat	.	.	1d	.	.	.
.	.	.	.	.	.	.	.	.	.	2g/	.
=150	=150	=150	=150	=150	=150	=150	=150	=150	=150	=150	=150
0.r	.	0C	-tum,	1G	re-	1e	Ut	1e	.	1g	.
.	.	.	.	0A	-a-	1e	nos-	1.c	.	0cc	.
.	.	1r	.	.	.	1f	-trum	.	.	.	.
.	.	.	.	.	.	.	.	2d\	.	.	.
=151	=151	=151	=151	=151	=151	=151	=151	=151	=151	=151	=151
1E	Ut	0.r	.	1G	.	0g	tol-	0e	-tum,	1b	.
1E	nos-	.	.	0c	.	.	.	.	.	1g	.
1F	-trum	.	.	.	.	1f	-lat	1r	.	1a	.
=152	=152	=152	=152	=152	=152	=152	=152	=152	=152	=152	=152
0G	tol-	0.r	.	1B	.	1d	re-	0.r	.	0b	-tum,
.	.	.	.	1G	.	1.e	-a-	.	.	.	.
1F	-lat	.	.	1A	.	.	.	.	.	1r	.
.	.	.	.	.	.	2d\	.	.	.	.	.
=153	=153	=153	=153	=153	=153	=153	=153	=153	=153	=153	=153
1D	re-	0.r	.	2B\	.	1d	.	0.r	.	0.r	.
.	.	.	.	1d	.	.	.	.	.	.	.
0E	-a-	.	.	.	.	0g	.	.	.	.	.
.	.	.	.	4c#i\	.	.	.	.	.	.	.
.	.	.	.	4B\	.	.	.	.	.	.	.
.	.	.	.	1c#i	.	.	.	.	.	.	.
=154	=154	=154	=154	=154	=154	=154	=154	=154	=154	=154	=154
0D	-tum,	1r	.	0d	-tum,	0f	-tum,	1r	.	1.a	Et
.	.	1r	.	.	.	.	.	1.d	Et	.	.
.	.	.	.	.	.	.	.	.	.	2g/	.
1r	.	1D	Et	1r	.	1r	.	.	.	1a	.
.	.	.	.	.	.	.	.	2c\	.	.	.
=155	=155	=155	=155	=155	=155	=155	=155	=155	=155	=155	=155
0.r	.	1.G	reg-	0.r	.	0.r	.	1d	.	1.b	reg-
.	.	.	.	.	.	.	.	1.e	reg-	.	.
.	.	2E\	.	.	.	.	.	.	.	2g/	.
.	.	1E	-num	.	.	.	.	.	.	1g	-num
.	.	.	.	.	.	.	.	2c\	.	.	.
=156	=156	=156	=156	=156	=156	=156	=156	=156	=156	=156	=156
0.r	.	1A	det	0.r	.	0.r	.	1c	-num	0a	det
.	.	1F	no-	.	.	.	.	1A	det	.	.
.	.	1D	-bis	.	.	.	.	1d	no-	1f	no-
=157	=157	=157	=157	=157	=157	=157	=157	=157	=157	=157	=157
0.r	.	1G	pa-	0.r	.	0.r	.	1B	-bis	1d	-bis
.	.	1C	.	.	.	.	.	1c	pa-	1e	pa-
.	.	1D	-ra-	.	.	.	.	1A	-ra-	1f	-ra-
=158	=158	=158	=158	=158	=158	=158	=158	=158	=158	=158	=158
1r	.	0GG	-tum	1r	.	1.d	Et	0G	-tum	0g	-tum
1r	.	.	.	1.G	Et	.	.	.	.	.	.
.	.	.	.	.	.	2c\	.	.	.	.	.
1GG	Et	1r	.	.	.	1d	.	1r	.	1r	.
.	.	.	.	2F/	.	.	.	.	.	.	.
=159	=159	=159	=159	=159	=159	=159	=159	=159	=159	=159	=159
1.C	reg-	0.r	.	1G	.	1.e	reg-	0.r	.	0.r	.
.	.	.	.	1.A	reg-	.	.	.	.	.	.
2AA/	.	.	.	.	.	2c\	.	.	.	.	.
1AA	-num	.	.	.	.	1c	-num	.	.	.	.
.	.	.	.	2F/	.	.	.	.	.	.	.
=160	=160	=160	=160	=160	=160	=160	=160	=160	=160	=160	=160
1D	det	0.r	.	1F	-num	1d	det	0.r	.	0.r	.
1C	no-	.	.	1G	det	1e	no-	.	.	.	.
1AA	-bis	.	.	1A	no-	1c	-bis	.	.	.	.
=161	=161	=161	=161	=161	=161	=161	=161	=161	=161	=161	=161
1BB	pa-	0.r	.	1D	-bis	1d	pa-	0.r	.	0.r	.
1C	.	.	.	1E	pa-	2.c\	-ra-	.	.	.	.
.	.	.	.	.	.	4B\	.	.	.	.	.
1D	-ra-	.	.	1F	-ra-	1A	.	.	.	.	.
=162	=162	=162	=162	=162	=162	=162	=162	=162	=162	=162	=162
1GG	.	1G	In	0G	-tum	0G	-tum	1d	In	1b	In
1C	.	1E	ce-	.	.	.	.	1e	ce-	1cc	ce-
1D	.	1F	-les-	1r	.	1r	.	1d	-les-	1a	-les-
=163	=163	=163	=163	=163	=163	=163	=163	=163	=163	=163	=163
1GG	-tum	1G	-ti	0.r	.	0.r	.	1B	-ti	1g	-ti
1r	.	1C	pa-	.	.	.	.	1c	pa-	1e	pa-
1r	.	1D	-tri-	.	.	.	.	1A	-tri-	1f	-tri-
=164	=164	=164	=164	=164	=164	=164	=164	=164	=164	=164	=164
1G	In	1GG	-a.	1B	In	1d	In	0G	-a.	0g	-a.
1E	ce-	1r	.	1c	ce-	1e	ce-	.	.	.	.
1F	-les-	1r	.	1A	-les-	1d	-les-	1r	.	1r	.
=165	=165	=165	=165	=165	=165	=165	=165	=165	=165	=165	=165
1G	-ti	0.r	.	1G	-ti	1B	-ti	0.r	.	0.r	.
1C	pa-	.	.	1E	pa-	1c	pa-	.	.	.	.
1D	-tri-	.	.	1F	-tri-	1A	-tri-	.	.	.	.
=166	=166	=166	=166	=166	=166	=166	=166	=166	=166	=166	=166
*M2/1	*	*M2/1	*	*M2/1	*	*M2/1	*	*M2/1	*	*M2/1	*
*met(C|)	*	*met(C|)	*	*met(C|)	*	*met(C|)	*	*met(C|)	*	*met(C|)	*
0GG	-a.	1G	A-	1G	-a.	1G	-a.	4G/	A-	2.g/	A-
.	.	.	.	.	.	.	.	4A/	.	.	.
.	.	.	.	.	.	.	.	4B\	.	.	.
.	.	.	.	.	.	.	.	4c\	.	4a/	.
.	.	1G	-men,	1r	.	1r	.	2d\	.	4b\	.
.	.	.	.	.	.	.	.	.	.	4cc\	.
.	.	.	.	.	.	.	.	[2G/	.	2dd\	.
=167	=167	=167	=167	=167	=167	=167	=167	=167	=167	=167	=167
0r	A-	0r	.	2.G/	A-	1d	A-	4G/]	.	2b\	.
.	.	.	.	.	.	.	.	4A/	.	.	.
.	.	.	.	.	.	.	.	4B\	.	2.dd\	.
.	.	.	.	4A/	.	.	.	4c\	.	.	.
.	.	.	.	4B\	.	1d	-men,	4d\	.	.	.
.	.	.	.	4c\	.	.	.	4e\	.	4cc\	.
.	.	.	.	2d\	.	.	.	2f\	.	2a/	.
=168	=168	=168	=168	=168	=168	=168	=168	=168	=168	=168	=168
2.GG/	.	1.G	a-	2B\	.	0r	.	1g	.	2.b\	.
.	.	.	.	2.d\	.	.	.	.	.	.	.
4AA/	.	.	.	.	.	.	.	.	.	4cc\	.
4BB/	.	.	.	.	.	.	.	1d	-men,	1dd	-men,
4C/	.	.	.	4c\	.	.	.	.	.	.	.
2D\	.	2F\	.	2A/	.	.	.	.	.	.	.
=169	=169	=169	=169	=169	=169	=169	=169	=169	=169	=169	=169
2GG/	.	2G\	.	2B\	.	1d	a-	0r	.	1r	.
2D\	.	2F\	.	2A/	.	.	.	.	.	.	.
4GG/	.	2G\	.	1B	.	1d	-men,	.	.	2r	.
4AA/	.	.	.	.	.	.	.	.	.	.	.
4BB/	.	[2D\	.	.	.	.	.	.	.	[2dd\	a-
4C/	.	.	.	.	.	.	.	.	.	.	.
=170	=170	=170	=170	=170	=170	=170	=170	=170	=170	=170	=170
1D	.	4D\]	.	1A	-men,	1r	.	1d	a-	4dd\]	.
.	.	4E\	.	.	.	.	.	.	.	4cc\	.
.	.	2F\	.	.	.	.	.	.	.	2a/	.
1GG	.	1G	-men,	2r	.	1d	a-	2.d\	.	1b	.
.	.	.	.	2G/	a-	.	.	.	.	.	.
.	.	.	.	.	.	.	.	4e\	.	.	.
=171	=171	=171	=171	=171	=171	=171	=171	=171	=171	=171	=171
[0D	-men,	2.F\	a-	2A/	.	1d	-men,	[0f	-men,	[0a	.
.	.	.	.	4D/	.	.	.	.	.	.	.
.	.	4G\	.	4E/	.	.	.	.	.	.	.
.	.	2A\	.	4F/	.	4D/	a-	.	.	.	.
.	.	.	.	4G/	.	4E/	.	.	.	.	.
.	.	4D\	.	2A/	.	4F/	.	.	.	.	.
.	.	4E\	.	.	.	4G/	.	.	.	.	.
=172	=172	=172	=172	=172	=172	=172	=172	=172	=172	=172	=172
0D_	.	4F\	.	4D/	.	2A/	.	0f_	.	0a_	-men,
.	.	4G\	.	4E/	.	.	.	.	.	.	.
.	.	2A\	.	4F/	.	4D/	.	.	.	.	.
.	.	.	.	4G/	.	4E/	.	.	.	.	.
.	.	1D	.	2A/	.	4F/	.	.	.	.	.
.	.	.	.	.	.	4G/	.	.	.	.	.
.	.	.	.	2D/	.	2A/	.	.	.	.	.
=173	=173	=173	=173	=173	=173	=173	=173	=173	=173	=173	=173
0D_	.	1.F	.	[0A	-men,	1D	.	0f_	.	0a_	.
.	.	.	.	.	.	1d	.	.	.	.	.
.	.	2D\	.	.	.	.	.	.	.	.	.
=174	=174	=174	=174	=174	=174	=174	=174	=174	=174	=174	=174
0D;]	.	0D;	-men,	0A;]	.	0d;	-men,	0f;]	.	0a;]	.
=175	=175	=175	=175	=175	=175	=175	=175	=175	=175	=175	=175
0GG	a-	0G	a-	0G	a-	0d	a-	0g	a-	0b	a-
=176	=176	=176	=176	=176	=176	=176	=176	=176	=176	=176	=176
0GGl	-men.	0Gl	-men.	0Gl	-men.	0dl	-men.	0gl	-men.	0bl	-men.
==	==	==	==	==	==	==	==	==	==	==	==
*-	*-	*-	*-	*-	*-	*-	*-	*-	*-	*-	*-
!!!RDF**kern: l=long note in original notation
!!!RDF**kern: i=editorial accidental
!!!ENC: Will Watson 2011/08/05
!!!END: 2011/08/05/
!!!EED: Jesse Rodin
!!!EEV: 2012/04/24/
!!attribution-level@Jos: 1 (secure, core group [checkmark])
!!!ONB: Translated from MusicXML and edited on 2011/08/17/ by Craig Sapp
!!muse2ps: u^(2) @{OTL2} (3) @{OTL3}^C^@{COM}\n@{SCT}^i2I150v85,85,85,85,85,100z18l2550t200c115
